assets/svg/action_sendfunds_successful.svg

<svg width="80" height="80" viewBox="0 0 80 80" fill="none" xmlns="http://www.w3.org/2000/svg">
<path d="M43.782 8.05313H32.2992C31.3586 8.05313 30.5227 7.45156 30.2242 6.55781L28.8711 2.5H47.2117L45.8586 6.55781C45.7129 6.99328 45.434 7.37195 45.0614 7.64028C44.6888 7.90861 44.2412 8.05303 43.782 8.05313ZM54.0383 67.3656V70.5203C54.0383 72.8641 52.1383 74.7641 49.7945 74.7641H31.0352C29.5258 74.7641 28.3008 75.9891 28.3008 77.4984H49.7945C53.6492 77.4984 56.7727 74.3734 56.7727 70.5203V64.6313C55.2633 64.6313 54.0383 65.8563 54.0383 67.3656Z" fill="#E1EAF8"/>
<path d="M52.032 34.1738H24.0508C23.4461 34.1738 22.957 33.6848 22.957 33.0801V14.0254C22.957 13.4207 23.4461 12.9316 24.0508 12.9316H52.032C52.6367 12.9316 53.1258 13.4207 53.1258 14.0254V33.0801C53.1258 33.6832 52.6352 34.1738 52.032 34.1738Z" fill="#0166FF"/>
<path d="M37.0944 27.0486L44.155 20.3013C44.3282 20.1228 44.4258 19.8842 44.4272 19.6355C44.4287 19.3868 44.3339 19.1471 44.1628 18.9667C43.9916 18.7862 43.7573 18.6788 43.5089 18.6671C43.2604 18.6553 43.0171 18.7401 42.8296 18.9036L36.4197 25.0123L33.5521 22.2773C33.4616 22.184 33.3531 22.11 33.2333 22.0598C33.1135 22.0095 32.9847 21.9839 32.8548 21.9847C32.7248 21.9855 32.5964 22.0125 32.4772 22.0641C32.3579 22.1158 32.2504 22.191 32.161 22.2853C32.0715 22.3796 32.0021 22.491 31.9569 22.6128C31.9116 22.7346 31.8914 22.8643 31.8976 22.9941C31.9037 23.1239 31.936 23.2512 31.9926 23.3682C32.0492 23.4851 32.1288 23.5895 32.2267 23.6749L35.757 27.0486C35.9352 27.2196 36.1728 27.3146 36.4197 27.3137C36.6703 27.3152 36.9119 27.2203 37.0944 27.0486Z" fill="white"/>
<path d="M52.4039 58.5406H45.7852C45.3539 58.5406 45.0039 58.1906 45.0039 57.7594V51.1406C45.0039 50.7094 45.3539 50.3594 45.7852 50.3594H52.4039C52.8352 50.3594 53.1852 50.7094 53.1852 51.1406V57.7594C53.1852 58.1906 52.8367 58.5406 52.4039 58.5406Z" fill="#E1EAF8"/>
<path d="M12.2573 15.412C12.1605 15.412 12.0636 15.387 11.9761 15.3339L8.49015 13.2355C8.42859 13.1985 8.37493 13.1498 8.33225 13.0921C8.28956 13.0343 8.2587 12.9688 8.24142 12.8991C8.22415 12.8294 8.2208 12.757 8.23158 12.686C8.24235 12.615 8.26704 12.5469 8.30421 12.4855C8.34115 12.4239 8.38988 12.3702 8.44761 12.3276C8.50533 12.2849 8.57092 12.254 8.6406 12.2367C8.71028 12.2195 8.78269 12.2161 8.85367 12.2269C8.92465 12.2377 8.9928 12.2623 9.05421 12.2995L12.5402 14.398C12.6017 14.4349 12.6554 14.4836 12.6981 14.5413C12.7407 14.5991 12.7716 14.6647 12.7889 14.7343C12.8062 14.804 12.8095 14.8764 12.7987 14.9474C12.788 15.0184 12.7633 15.0865 12.7261 15.148C12.6774 15.2287 12.6087 15.2955 12.5265 15.3418C12.4444 15.388 12.3516 15.4122 12.2573 15.412ZM7.6839 29.2605C7.55645 29.2605 7.43299 29.216 7.33483 29.1347C7.23667 29.0534 7.16998 28.9404 7.14627 28.8152C7.12256 28.69 7.14332 28.5604 7.20496 28.4488C7.2666 28.3373 7.36526 28.2508 7.4839 28.2042L11.2714 26.7183C11.5527 26.6073 11.8698 26.7464 11.9808 27.0276C12.0917 27.3089 11.9527 27.6261 11.6714 27.737L7.8839 29.223C7.81828 29.248 7.74953 29.2605 7.6839 29.2605ZM63.5589 64.2855C63.462 64.2855 63.3652 64.2605 63.2777 64.2073L59.7917 62.1089C59.7302 62.072 59.6765 62.0232 59.6338 61.9655C59.5911 61.9078 59.5603 61.8422 59.543 61.7725C59.5257 61.7028 59.5224 61.6304 59.5331 61.5594C59.5439 61.4885 59.5686 61.4203 59.6058 61.3589C59.6427 61.2973 59.6914 61.2437 59.7492 61.201C59.8069 61.1583 59.8725 61.1274 59.9422 61.1102C60.0118 61.0929 60.0843 61.0895 60.1552 61.1003C60.2262 61.1111 60.2944 61.1358 60.3558 61.173L63.8417 63.2714C63.9033 63.3083 63.9569 63.3571 63.9996 63.4148C64.0423 63.4725 64.0732 63.5381 64.0905 63.6078C64.1077 63.6775 64.1111 63.7499 64.1003 63.8208C64.0895 63.8918 64.0648 63.96 64.0277 64.0214C63.9789 64.102 63.9101 64.1687 63.828 64.215C63.7458 64.2613 63.6532 64.2855 63.5589 64.2855ZM60.8605 49.8245C60.733 49.8246 60.6096 49.7801 60.5114 49.6988C60.4132 49.6175 60.3466 49.5045 60.3228 49.3793C60.2991 49.254 60.3199 49.1245 60.3815 49.0129C60.4432 48.9014 60.5418 48.8148 60.6605 48.7683L64.448 47.2823C64.7292 47.1714 65.0464 47.3105 65.1573 47.5917C65.2683 47.873 65.1292 48.1901 64.848 48.3011L61.0605 49.787C60.9948 49.8136 60.9277 49.8245 60.8605 49.8245Z" fill="#0166FF"/>
<path d="M23.7305 68.75C23.7305 69.0516 23.9758 69.2969 24.2773 69.2969H51.8023C52.1039 69.2969 52.3492 69.0516 52.3492 68.75C52.3492 68.4484 52.1039 68.2031 51.8023 68.2031H24.2773C23.9758 68.2031 23.7305 68.4484 23.7305 68.75Z" fill="#9A9A9A"/>
<path d="M56.2254 64.6327C56.2254 64.3311 56.4707 64.0858 56.7723 64.0858C57.0754 64.0858 57.3191 64.3296 57.3176 64.6327V70.5218C57.3176 74.6702 53.9426 78.0468 49.7926 78.0468H26.2848C22.1363 78.0468 18.7598 74.6718 18.7598 70.5218L18.7604 67.9993L18.7598 64.2137C18.7598 63.9112 19.005 63.666 19.3075 63.666C19.6099 63.666 19.8551 63.9112 19.8551 64.2136V70.5218C19.8551 74.0671 22.7395 76.953 26.2863 76.953H49.7941C53.3395 76.953 56.2254 74.0686 56.2254 70.5218V64.6327Z" fill="#9A9A9A"/>
<path d="M27.3887 38.5645H50.509C50.8105 38.5645 51.0559 38.3191 51.0559 38.0176C51.0559 37.716 50.8105 37.4707 50.509 37.4707H27.3887C27.0871 37.4707 26.8418 37.716 26.8418 38.0176C26.8418 38.3191 27.0871 38.5645 27.3887 38.5645Z" fill="#9A9A9A"/>
<path d="M27.3867 44.0035H50.507C50.8086 44.0035 51.0539 43.7582 51.0539 43.4566C51.0539 43.155 50.8086 42.9097 50.507 42.9097H27.3867C27.0852 42.9097 26.8398 43.155 26.8398 43.4566C26.8398 43.7582 27.0852 44.0035 27.3867 44.0035ZM42.0336 51.1129H32.3305C32.0289 51.1129 31.7836 51.3582 31.7836 51.6597C31.7836 51.9613 32.0289 52.2066 32.3305 52.2066H42.0336C42.3352 52.2066 42.5805 51.9613 42.5805 51.6597C42.5805 51.3582 42.3352 51.1129 42.0336 51.1129ZM42.0336 56.5519H32.3305C32.0289 56.5519 31.7836 56.7972 31.7836 57.0988C31.7836 57.4004 32.0289 57.6457 32.3305 57.6457H42.0336C42.3352 57.6457 42.5805 57.4004 42.5805 57.0988C42.5805 56.7972 42.3352 56.5519 42.0336 56.5519ZM23.7305 63.3097C23.7305 63.6113 23.9758 63.8566 24.2773 63.8566H41.1945C41.4961 63.8566 41.7414 63.6113 41.7414 63.3097C41.7414 63.0082 41.4961 62.7629 41.1945 62.7629H24.2773C23.9758 62.7629 23.7305 63.0066 23.7305 63.3097ZM77.8695 16.7144C77.8695 15.7707 77.1023 15.0035 76.157 15.0035H73.257L73.9945 11.0707C74.1258 10.3738 73.968 9.67379 73.5508 9.10035C73.1351 8.52691 72.518 8.15973 71.8148 8.0691C71.2648 7.99723 70.7492 8.38629 70.6664 8.93473L70.2914 11.43C70.1336 12.4769 69.4102 13.33 68.4023 13.655C67.3352 13.9988 66.5133 14.891 66.2555 15.9832C66.2539 15.9925 66.2461 15.9988 66.2367 15.9988H64.8852C64.7773 15.305 64.1773 14.7707 63.4539 14.7707H60.2351C59.9773 14.7707 59.732 14.8816 59.5617 15.0738C59.3914 15.266 59.3102 15.5222 59.3398 15.7785L60.318 24.1035C60.3711 24.5582 60.757 24.9004 61.2133 24.9004H63.4539C64.1289 24.9004 64.6961 24.4363 64.857 23.8097H65.0461C65.1383 23.8097 65.2305 23.841 65.3023 23.8972L65.7195 24.2222C66.7133 24.9925 67.9508 25.4175 69.2055 25.4175H74.8945C75.8383 25.4175 76.6055 24.6504 76.6055 23.7066C76.6055 23.3425 76.4898 23.0066 76.2961 22.7285C76.7117 22.4097 76.982 21.9097 76.982 21.3457C76.982 21.0222 76.8883 20.7207 76.7289 20.4629C77.1945 20.1488 77.5023 19.6175 77.5023 19.016C77.5023 18.6629 77.393 18.3363 77.2055 18.066C77.6101 17.7488 77.8695 17.2613 77.8695 16.7144ZM63.8117 23.4488C63.8117 23.6457 63.6523 23.805 63.4555 23.805H61.3852L60.4523 15.8629H63.4555C63.6523 15.8629 63.8117 16.0222 63.8117 16.2191V23.4488ZM74.8977 24.3222H69.2086C68.1891 24.3202 67.1991 23.9807 66.393 23.3566L65.9742 23.0316C65.7088 22.8266 65.383 22.7151 65.0476 22.7144H64.9055V17.091H66.2383C66.757 17.091 67.2023 16.7379 67.3211 16.2332C67.4914 15.5129 68.0336 14.9238 68.7383 14.6957C70.1445 14.2425 71.1539 13.0535 71.3727 11.5925L71.7383 9.16441C72.1133 9.23004 72.4414 9.43316 72.6664 9.7441C72.7835 9.90421 72.8665 10.0867 72.91 10.2803C72.9536 10.4738 72.9568 10.6742 72.9195 10.8691L72.1727 14.8472C72.1148 15.1566 72.1961 15.4738 72.3977 15.716C72.5992 15.9582 72.8945 16.0972 73.2101 16.0972H76.157C76.4977 16.0972 76.7758 16.3738 76.7758 16.7144C76.7758 17.055 76.4992 17.3316 76.157 17.3316H74.1508C73.8492 17.3316 73.6039 17.5769 73.6039 17.8785C73.6039 18.18 73.8492 18.4254 74.1508 18.4254H75.8242C76.1477 18.4254 76.4102 18.6879 76.4102 19.0113C76.4097 19.1836 76.3411 19.3486 76.2193 19.4705C76.0975 19.5923 75.9324 19.6609 75.7602 19.6613H74.2867C73.9851 19.6613 73.7398 19.9066 73.7398 20.2082C73.7398 20.5097 73.9851 20.755 74.2867 20.755H75.3039C75.6273 20.755 75.8898 21.0175 75.8898 21.341C75.8894 21.5132 75.8208 21.6783 75.699 21.8001C75.5772 21.9219 75.4121 21.9906 75.2398 21.991H74.0976C73.7961 21.991 73.5508 22.2363 73.5508 22.5379C73.5508 22.8394 73.7961 23.0847 74.0976 23.0847H74.8945C75.2352 23.0847 75.5133 23.3613 75.5133 23.7019C75.5133 24.0425 75.2383 24.3222 74.8977 24.3222Z" fill="#9A9A9A"/>
<path d="M57.3211 9.47813V60.0273C57.3211 60.3298 57.0759 60.575 56.7734 60.575C56.471 60.575 56.2258 60.3298 56.2258 60.0273V9.47813C56.2258 5.93281 53.3414 3.04688 49.7945 3.04688H26.2867C22.7414 3.04688 19.8555 5.93125 19.8555 9.47813V44.1719C19.8555 44.4734 19.6102 44.7188 19.3086 44.7188C19.007 44.7188 18.7617 44.4734 18.7617 44.1719V9.47813C18.7617 5.32969 22.1367 1.95312 26.2867 1.95312H49.7961C53.9445 1.95312 57.3211 5.32813 57.3211 9.47813Z" fill="#9A9A9A"/>
<path d="M17.697 60.8414H17.6969H5.60625C4.99645 60.8414 4.5 60.3449 4.5 59.7352V48.1805C4.5 47.5707 4.99645 47.0742 5.60625 47.0742H13.225H14.3203H24.5438C25.1532 47.0742 25.65 47.5704 25.65 48.182V59.7367C25.65 60.3465 25.1535 60.843 24.5438 60.843H22.1814H22.1813L17.697 60.8414Z" stroke="#9A9A9A"/>
<path d="M20.2805 50.7383H9.87109C9.56953 50.7383 9.32422 50.9836 9.32422 51.2852C9.32422 51.5867 9.56953 51.832 9.87109 51.832H20.2805C20.582 51.832 20.8273 51.5867 20.8273 51.2852C20.8273 50.9836 20.582 50.7383 20.2805 50.7383ZM20.2805 55.9789H9.87109C9.56953 55.9789 9.32422 56.2242 9.32422 56.5258C9.32422 56.8273 9.56953 57.0727 9.87109 57.0727H20.2805C20.582 57.0727 20.8273 56.8273 20.8273 56.5258C20.8273 56.2242 20.582 55.9789 20.2805 55.9789Z" fill="#9A9A9A"/>
</svg>

<svg xmlns="http://www.w3.org/2000/svg" width="80" height="80" fill="none"><path fill="#E1EAF8" d="M43.782 8.053H32.299c-.94 0-1.776-.601-2.075-1.495L28.871 2.5h18.34L45.86 6.558a2.19 2.19 0 0 1-2.077 1.495m10.256 59.313v3.154c0 2.344-1.9 4.244-4.243 4.244h-18.76a2.735 2.735 0 0 0-2.734 2.734h21.494a6.98 6.98 0 0 0 6.978-6.978v-5.889a2.735 2.735 0 0 0-2.735 2.735"/><path fill="#0166FF" d="M52.032 34.174H24.051a1.093 1.093 0 0 1-1.094-1.094V14.025c0-.604.49-1.093 1.094-1.093h27.981c.605 0 1.094.489 1.094 1.093V33.08c0 .603-.49 1.094-1.094 1.094"/><path fill="#fff" d="m37.094 27.049 7.061-6.748a.964.964 0 0 0-1.325-1.397l-6.41 6.108-2.868-2.735a.962.962 0 0 0-1.654.717.96.96 0 0 0 .329.68l3.53 3.375a.976.976 0 0 0 1.337 0"/><path fill="#E1EAF8" d="M52.404 58.54h-6.619a.78.78 0 0 1-.781-.78v-6.62c0-.43.35-.78.781-.78h6.619c.431 0 .781.35.781.78v6.62a.78.78 0 0 1-.781.78"/><path fill="#0166FF" d="M12.257 15.412a.54.54 0 0 1-.28-.078L8.49 13.236a.547.547 0 1 1 .564-.937l3.486 2.099a.546.546 0 0 1-.283 1.014M7.684 29.261a.547.547 0 0 1-.2-1.057l3.787-1.486a.547.547 0 1 1 .4 1.019l-3.787 1.486a.6.6 0 0 1-.2.038m55.875 35.025a.54.54 0 0 1-.281-.079l-3.486-2.098a.546.546 0 1 1 .564-.936l3.486 2.098a.545.545 0 0 1-.283 1.014M60.86 49.825a.547.547 0 0 1-.2-1.057l3.787-1.486a.547.547 0 1 1 .4 1.02l-3.788 1.485a.5.5 0 0 1-.2.038"/><path fill="#9A9A9A" d="M23.73 68.75c0 .302.246.547.547.547h27.525a.547.547 0 0 0 0-1.094H24.277a.547.547 0 0 0-.547.547"/><path fill="#9A9A9A" d="M56.225 64.633c0-.302.246-.547.547-.547.303 0 .547.244.546.547v5.889c0 4.148-3.375 7.525-7.525 7.525H26.285c-4.149 0-7.525-3.375-7.525-7.525v-6.308a.548.548 0 0 1 1.095 0v6.308a6.44 6.44 0 0 0 6.431 6.431h23.508a6.44 6.44 0 0 0 6.431-6.431zM27.389 38.565h23.12a.548.548 0 0 0 0-1.094h-23.12a.547.547 0 0 0 0 1.094"/><path fill="#9A9A9A" d="M27.387 44.004h23.12a.547.547 0 0 0 0-1.094h-23.12a.548.548 0 0 0 0 1.094m14.647 7.109H32.33a.547.547 0 0 0 0 1.094h9.703a.547.547 0 0 0 0-1.094m0 5.439H32.33a.547.547 0 0 0 0 1.094h9.703a.547.547 0 0 0 0-1.094M23.73 63.31c0 .301.245.547.546.547h16.917a.547.547 0 0 0 0-1.094H24.277a.546.546 0 0 0-.547.547M77.87 16.714c0-.943-.768-1.71-1.713-1.71h-2.9l.737-3.933a2.52 2.52 0 0 0-.443-1.97 2.52 2.52 0 0 0-1.736-1.032 1.033 1.033 0 0 0-1.149.866l-.375 2.495a2.76 2.76 0 0 1-1.889 2.225 3.24 3.24 0 0 0-2.147 2.328.02.02 0 0 1-.018.016h-1.352a1.45 1.45 0 0 0-1.431-1.228h-3.219a.9.9 0 0 0-.895 1.007l.978 8.326a.9.9 0 0 0 .895.796h2.24c.676 0 1.243-.464 1.404-1.09h.19a.42.42 0 0 1 .255.087l.417.325a5.72 5.72 0 0 0 3.487 1.195h5.688c.944 0 1.712-.767 1.712-1.71 0-.364-.116-.7-.31-.979a1.74 1.74 0 0 0 .686-1.382c0-.324-.094-.625-.253-.883.466-.314.773-.846.773-1.447 0-.353-.109-.68-.296-.95.404-.317.663-.805.663-1.352M63.812 23.45c0 .197-.16.356-.356.356h-2.07l-.934-7.942h3.004c.196 0 .356.16.356.356zm11.086.873h-5.69a4.6 4.6 0 0 1-2.815-.965l-.419-.325a1.52 1.52 0 0 0-.926-.318h-.142v-5.623h1.332c.519 0 .964-.353 1.083-.858.17-.72.713-1.31 1.417-1.537a3.84 3.84 0 0 0 2.635-3.104l.365-2.428c.375.066.703.27.928.58a1.45 1.45 0 0 1 .254 1.125l-.747 3.978a1.052 1.052 0 0 0 1.037 1.25h2.947a.618.618 0 1 1 0 1.234h-2.006a.547.547 0 0 0 0 1.094h1.673c.324 0 .586.263.586.586a.65.65 0 0 1-.65.65h-1.473a.547.547 0 0 0 0 1.094h1.017c.323 0 .586.262.586.586a.65.65 0 0 1-.65.65h-1.142a.547.547 0 0 0 0 1.094h.796a.619.619 0 0 1 .004 1.237"/><path fill="#9A9A9A" d="M57.321 9.478v50.55a.548.548 0 1 1-1.095 0V9.477a6.44 6.44 0 0 0-6.431-6.431H26.287a6.44 6.44 0 0 0-6.431 6.431v34.694a.548.548 0 0 1-1.094 0V9.478c0-4.148 3.375-7.525 7.525-7.525h23.51c4.148 0 7.524 3.375 7.524 7.525"/><path stroke="#9A9A9A" d="M17.697 60.841H5.607c-.61 0-1.107-.496-1.107-1.106V48.181c0-.61.496-1.107 1.106-1.107h18.938c.61 0 1.106.496 1.106 1.108v11.555c0 .61-.496 1.106-1.106 1.106H22.18z"/><path fill="#9A9A9A" d="M20.28 50.738H9.872a.547.547 0 0 0 0 1.094h10.41a.547.547 0 0 0 0-1.094m0 5.24H9.872a.547.547 0 0 0 0 1.095h10.41a.548.548 0 0 0 0-1.094"/></svg>
